packages/icons/web/spinner_above_small.svg

<svg width="24" height="24" viewBox="0 0 24 24" fill="none" xmlns="http://www.w3.org/2000/svg">
<path d="M6 12C6 11.4477 5.55228 11 5 11C4.44772 11 4 11.4477 4 12H6ZM12 4C11.4477 4 11 4.44772 11 5C11 5.55228 11.4477 6 12 6V4ZM18 12C18 15.3137 15.3137 18 12 18V20C16.4183 20 20 16.4183 20 12H18ZM12 18C8.68629 18 6 15.3137 6 12H4C4 16.4183 7.58172 20 12 20V18ZM12 6C15.3137 6 18 8.68629 18 12H20C20 7.58172 16.4183 4 12 4V6Z" fill="#212933"/>
</svg>

<svg width="24" height="24" fill="none" xmlns="http://www.w3.org/2000/svg">
    <path d="M6 12a1 1 0 10-2 0h2zm6-8a1 1 0 100 2V4zm6 8a6 6 0 01-6 6v2a8 8 0 008-8h-2zm-6 6a6 6 0 01-6-6H4a8 8 0 008 8v-2zm0-12a6 6 0 016 6h2a8 8 0 00-8-8v2z" fill="currentColor"/>
</svg>
